X:1
T:Title
%%score { ( 1 3 ) | ( 2 4 ) }
L:1/8
M:4/4
K:Db
V:1 treble nm="Grand Piano"
V:3 treble 
V:2 bass 
V:4 bass 
V:1
 z4 z2[Q:1/4=84] [DF]>[EG] | [FA]2 [FA]2 [Fd]2 [GB]2 | [FA]2 [FA]4 F>E | z z/ E/ F>G [FA]2 [FB]2 | %4
[M:3/4] [Gc]6 |[M:1/4] A>B |[M:4/4] c2 c2 e2 c2 | [Fd]2 [FA]4 [FA]>[FB] | [Ec]4 [=GB]4 | %9
[M:3/4] e6 |[M:1/4] f>e |[M:4/4] [Fe]2 [Fd]2 [FA]3 [EG] | F>E D>F [FA]2 [FB]>[Fd] | %13
 c>_c =c>d e>c B>c | [Fd]2 [Fd]2 [Fd]2 [FA]>[FA] | B>=A B>c e>d c>B | %16
[M:9/8] [FA]2 [Fd]- [Fd] [Af]2- [Af][FA]>[FA] |[M:4/4] [GB]>[GB] [=GB]>[GB] c>c B>A | %18
[M:7/8] [Fd]2 [Gd]2 [Fd]3 |] %19
V:2
 z4 z2 [D,A,]>[D,A,] | [D,D]2 [D,D]2 [D,A,]2 [D,D]2 | [D,D]2 [D,D]4 [D,A,D]>[D,G,D] | %3
 F,>G, D>E [D,D]2 [D,D]2 |[M:3/4] [E,A,]6 |[M:1/4][K:treble] [A,CG]>[A,DG] | %6
[M:4/4] [A,EG]2 [A,EG]2 [A,CG]2 [A,G]2 | [D,A,]2 [D,D]4 [D,D]>[D,A,] | [E,A,]4 [E,D]4 | %9
[M:3/4] [A,,CG]6 |[M:1/4][K:treble] [A,CA]>[A,G] |[M:4/4][K:bass] [D,A,]2 [D,A,]2 [D,D]3 [D,A,] | %12
 [D,A,D]>[D,G,D] [D,F,]>[D,A,D] [D,D]2 [D,D]>[D,A,] | %13
 [A,G]>[A,G] [A,G]>[A,G] [A,CG]>[A,G] [A,CG]>[A,G] | [D,A,]2 [D,A,]2 [D,A,]2 [D,D]>[D,D] | %15
 [G,DG]>[G,CG] [G,DG]>[G,DG] [G,B,G]>[G,B,G] [G,B,G]>[G,DG] | %16
[M:9/8] [D,D]2 [D,A,]- [D,A,] [D,D]2- [D,D][D,D]>[D,D] | %17
[M:4/4] [G,D]>[G,D] [E,D]>[E,E][K:treble] [A,EA]>[A,EA] [A,CG]>[A,G] | %18
[M:7/8][K:bass] [D,A,]2 [D,B,]2 [D,A,]3 |] %19
V:3
 x8 | x8 | x8 | D2 z2 z4 |[M:3/4] x6 |[M:1/4] x2 |[M:4/4] x8 | x8 | x8 |[M:3/4] x6 |[M:1/4] x2 | %11
[M:4/4] x8 | x8 | x8 | x8 | x8 |[M:9/8] x9 |[M:4/4] x8 |[M:7/8] x7 |] %19
V:4
 x8 | x8 | x8 | D,2 [D,A,]2 z4 |[M:3/4] x6 |[M:1/4][K:treble] x2 |[M:4/4] x8 | x8 | x8 | %9
[M:3/4] x6 |[M:1/4][K:treble] x2 |[M:4/4][K:bass] x8 | x8 | x8 | x8 | x8 |[M:9/8] x9 | %17
[M:4/4] x4[K:treble] x4 |[M:7/8][K:bass] x7 |] %19

